usr/share/icons/biglinux-icons-material-dark/22/actions/transform-scale.svg

<svg xmlns="http://www.w3.org/2000/svg" viewBox="0 0 22 22">
<defs id="defs3051">
<style id="current-color-scheme" type="text/css">
.ColorScheme-Text{color:#dedede}
</style>
</defs>
<path d="M3 3v3h3V3zm13 0v3h3V3zM4 4h1v1H4zm13 0h1v1h-1zM7 5v1h2V5zm3 0v1h2V5zm3 0v1h2V5zM5 7v2h1V7zm11 0v2h1V7zM5 10v2h1v-2zm5 1v6h6v-6zm1 1h4v4h-4zm-6 1v2h1v-2zm13 2v3h-3v1h4v-4zM3 16v3h3v-3zm4 0v1h2v-1zm-3 1h1v1H4z" class="ColorScheme-Text" style="fill:currentColor;fill-opacity:1;stroke:none"/>
</svg>

<svg xmlns="http://www.w3.org/2000/svg" viewBox="0 0 22 22">
  <defs id="defs3051">
    <style type="text/css" id="current-color-scheme">
      .ColorScheme-Text {
        color:#dedede;
      }
      </style>
  </defs>
 <path 
    style="fill:currentColor;fill-opacity:1;stroke:none" 
    d="M 3 3 L 3 5 L 3 6 L 6 6 L 6 5 L 6 3 L 4 3 L 3 3 z M 16 3 L 16 4 L 16 5 L 16 6 L 17 6 L 18 6 L 19 6 L 19 5 L 19 4 L 19 3 L 16 3 z M 4 4 L 5 4 L 5 5 L 4 5 L 4 4 z M 17 4 L 18 4 L 18 5 L 17 5 L 17 4 z M 7 5 L 7 6 L 9 6 L 9 5 L 7 5 z M 10 5 L 10 6 L 12 6 L 12 5 L 10 5 z M 13 5 L 13 6 L 15 6 L 15 5 L 13 5 z M 5 7 L 5 9 L 6 9 L 6 7 L 5 7 z M 16 7 L 16 9 L 17 9 L 17 7 L 16 7 z M 5 10 L 5 12 L 6 12 L 6 10 L 5 10 z M 10 11 L 10 17 L 11 17 L 15 17 L 16 17 L 16 16 L 16 12 L 16 11 L 15 11 L 11 11 L 10 11 z M 11 12 L 15 12 L 15 16 L 11 16 L 11 12 z M 5 13 L 5 15 L 6 15 L 6 13 L 5 13 z M 18 15 L 18 18 L 15 18 L 15 19 L 19 19 L 19 18 L 19 15 L 18 15 z M 3 16 L 3 17 L 3 19 L 4 19 L 5 19 L 6 19 L 6 16 L 3 16 z M 7 16 L 7 17 L 9 17 L 9 16 L 7 16 z M 4 17 L 5 17 L 5 18 L 4 18 L 4 17 z "
	class="ColorScheme-Text"
    />  
</svg>
